common/src/main/resources/icons/actions/positions/default.svg

<svg xmlns="http://www.w3.org/2000/svg" width="16" height="16" fill="#78909C" data-big="true" viewBox="0 0 24 24"><path d="M5.13 10.71h3.74L6.22 8.06c-1.01 0-1.83-.82-1.83-1.84a1.83 1.83 0 0 1 1.83-1.83c1.02 0 1.84.82 1.84 1.83l2.65 2.65V5.13a1.84 1.84 0 0 1 0-2.59 1.81 1.81 0 0 1 2.58 0c.71.71.71 1.87 0 2.59v3.74l2.66-2.65a1.83 1.83 0 0 1 3.66 0c0 1.02-.82 1.84-1.83 1.84l-2.65 2.65h3.74a1.84 1.84 0 0 1 2.59 0c.72.71.72 1.87 0 2.58-.71.71-1.87.71-2.59 0h-3.74l2.65 2.66c1.01 0 1.83.81 1.83 1.83a1.83 1.83 0 0 1-1.83 1.83c-1.02 0-1.83-.82-1.83-1.83l-2.66-2.65v3.74c.71.72.71 1.88 0 2.59-.71.72-1.87.72-2.58 0a1.84 1.84 0 0 1 0-2.59v-3.74l-2.65 2.65c0 1.01-.82 1.83-1.84 1.83a1.83 1.83 0 0 1 0-3.66l2.65-2.66H5.13c-.72.71-1.88.71-2.59 0a1.81 1.81 0 0 1 0-2.58 1.84 1.84 0 0 1 2.59 0"/></svg>

<!--
  - The MIT License (MIT)
  -
  - Copyright (c) 2015-2024 Elior "Mallowigi" Boukhobza
  -
  - Permission is hereby granted, free of charge, to any person obtaining a copy
  - of this software and associated documentation files (the "Software"), to deal
  - in the Software without restriction, including without limitation the rights
  - to use, copy, modify, merge, publish, distribute, sublicense, and/or sell
  - copies of the Software, and to permit persons to whom the Software is
  - furnished to do so, subject to the following conditions:
  -
  - The above copyright notice and this permission notice shall be included in all
  - copies or substantial portions of the Software.
  -
  - THE SOFTWARE IS PROVIDED "AS IS", WITHOUT WARRANTY OF ANY KIND, EXPRESS OR
  - IMPLIED, INCLUDING BUT NOT LIMITED TO THE WARRANTIES OF MERCHANTABILITY,
  - FITNESS FOR A PARTICULAR PURPOSE AND NONINFRINGEMENT. IN NO EVENT SHALL THE
  - AUTHORS OR COPYRIGHT HOLDERS BE LIABLE FOR ANY CLAIM, DAMAGES OR OTHER
  - LIABILITY, WHETHER IN AN ACTION OF CONTRACT, TORT OR OTHERWISE, ARISING FROM,
  - OUT OF OR IN CONNECTION WITH THE SOFTWARE OR THE USE OR OTHER DEALINGS IN THE
  - SOFTWARE.
  -->


<svg data-big="true" xmlns="http://www.w3.org/2000/svg" version="1.1" width="16px" height="16px" fill="#78909C"
     viewBox="0 0 24 24">
  <path
    d="M5.13,10.71H8.87L6.22,8.06C5.21,8.06 4.39,7.24 4.39,6.22A1.83,1.83 0 0,1 6.22,4.39C7.24,4.39 8.06,5.21 8.06,6.22L10.71,8.87V5.13C10,4.41 10,3.25 10.71,2.54C11.42,1.82 12.58,1.82 13.29,2.54C14,3.25 14,4.41 13.29,5.13V8.87L15.95,6.22C15.95,5.21 16.76,4.39 17.78,4.39C18.79,4.39 19.61,5.21 19.61,6.22C19.61,7.24 18.79,8.06 17.78,8.06L15.13,10.71H18.87C19.59,10 20.75,10 21.46,10.71C22.18,11.42 22.18,12.58 21.46,13.29C20.75,14 19.59,14 18.87,13.29H15.13L17.78,15.95C18.79,15.95 19.61,16.76 19.61,17.78A1.83,1.83 0 0,1 17.78,19.61C16.76,19.61 15.95,18.79 15.95,17.78L13.29,15.13V18.87C14,19.59 14,20.75 13.29,21.46C12.58,22.18 11.42,22.18 10.71,21.46C10,20.75 10,19.59 10.71,18.87V15.13L8.06,17.78C8.06,18.79 7.24,19.61 6.22,19.61C5.21,19.61 4.39,18.79 4.39,17.78C4.39,16.76 5.21,15.95 6.22,15.95L8.87,13.29H5.13C4.41,14 3.25,14 2.54,13.29C1.82,12.58 1.82,11.42 2.54,10.71C3.25,10 4.41,10 5.13,10.71Z"/>
</svg>
